X:1
T: Великая ектения
C:Подобна антифонам Л.Зуммера
M:4/4
L:1/4
K:Bb
V:1 clef=treble name="Soprano"
%%MIDI program 40
%%score [(1 2) (3 4)]
%%tempo { 40, 60, *80, 100, 120, 140 }
%%player_top
[V:1]
B B B c | d4 | c4 || A A A B | c4 | B4 ||
w: Гос-по-ди-по-ми-луй, Гос-по-ди-по-ми-луй
G G G A | (B2 A G ) | ^F4  || ^F F F G | (A2 G ^F) | G4 ||
w: Гос-по-ди-по-ми---луй, Гос-по-ди-по-ми---луй
 G A | (B2 A) G  | ^F4  || (^F G) | (A2 G ^F | G4) ||
w: Те-бе, Гос--по-ди А--минь